X:9437
T:Le trente et un du mois d'aot
A:Normandie
O:France
M:6/8
L:1/8
Q:1/4=180
K:G
DDD|G3BBB|G3BBB|B3GBG|A3ABc|
d3GGF|E3DzD|G>G GG2 G|A3ABc|
B3ABA|G2z||
W:
W:Le trente et un du mois d'aot
W:Nous vmes venir sous l'vent  nous
W:Une frgate d'Angleterre
W:Qui fendait la mer z'et les flots,
W:C'tait pour aller  Bordeaux.
W:
W:Le capitaine, au mme instant
W:Fait appeler son lieutenant:
W:Lieutenant te sens tu l'courage
W:D'aller l'attaquer  son bord
W:Pour savoir qui sera l'plus fort 
W:
W:Le lieutenant fier z'et hardi
W:Lui rpondit : Capitaine oui
W:Faites monter tou l'quipage,
W:Hardi gabiers et matelots,
W:Faites monter tout l'monde en haut !
